X:1
T:Azt mondják, ideje féjhezmenni
T: 
C:Hungarian folk song
Z:Public Domain
L:1/8
Q:1/4=120
M:4/4
K:C
V:1 treble nm="MusicXML Part"
%%MIDI program 0
V:1
"F" AA A2"C" GG G2 |"F" AA A2"C" G2 AG |"F" FFAA"C" EEEE |"F" FF F2"C" G2 c_B |] %4
w: Azt mond- ják, i- de- je|férj- hez men- ni, _ _|el- ad- ná- nak en- ge- met egy|mi- hasz- ná- nak, _ _|

